dist/ueditor-plus/themes/default/exts/dwg.svg

<svg xmlns="http://www.w3.org/2000/svg" width="84" height="100" viewBox="0 0 84 100">
  <defs>
    <linearGradient id="dwg-a" x1="50%" x2="50%" y1="100%" y2="0%">
      <stop offset="0%" stop-color="#98BCCD"/>
      <stop offset="100%" stop-color="#76A1B7"/>
    </linearGradient>
  </defs>
  <g fill="none" fill-rule="evenodd">
    <path fill="url(#dwg-a)" d="M83.3333333,20.8333333 L83.3333333,93.75 C83.3333333,97.2017797 80.535113,100 77.0833333,100 L6.25,100 C2.79822031,100 0,97.2017797 0,93.75 L0,6.25 C0,2.79822031 2.79822031,0 6.25,0 L62.5,0 L83.3333333,20.8333333 Z"/>
    <path fill="#FFF" d="M50,45.8333333 C51.1505932,45.8333333 52.0833333,46.7660734 52.0833333,47.9166667 L52.0833333,66.6663333 L54.1666667,66.6666667 C55.3172599,66.6666667 56.25,67.5994068 56.25,68.75 L56.2493333,70.8326667 L60.4166667,70.8333333 C61.5672599,70.8333333 62.5,71.7660734 62.5,72.9166667 C62.5,74.0672599 61.5672599,75 60.4166667,75 L56.2493333,74.9996667 L56.25,77.0833333 C56.25,78.2339266 55.3172599,79.1666667 54.1666667,79.1666667 L52.0833333,79.1663333 L52.0833333,85.4166667 C52.0833333,86.5672599 51.1505932,87.5 50,87.5 C48.8494068,87.5 47.9166667,86.5672599 47.9166667,85.4166667 L47.9163333,79.1663333 L45.8333333,79.1666667 C44.6827401,79.1666667 43.75,78.2339266 43.75,77.0833333 L43.7493333,74.9996667 L22.9166667,75 C21.7660734,75 20.8333333,74.0672599 20.8333333,72.9166667 C20.8333333,71.7660734 21.7660734,70.8333333 22.9166667,70.8333333 L43.7493333,70.8326667 L43.75,68.75 C43.75,67.5994068 44.6827401,66.6666667 45.8333333,66.6666667 L47.9163333,66.6663333 L47.9166667,47.9166667 C47.9166667,46.7660734 48.8494068,45.8333333 50,45.8333333 Z" opacity=".6"/>
    <path fill="#BEEAFF" d="M83.3333333,20.8333333 L66.6666667,20.8333333 C64.3654802,20.8333333 62.5,18.9678531 62.5,16.6666667 L62.5,0 L83.3333333,20.8333333 Z"/>
    <text fill="#FFF" font-family="Helvetica" font-size="22.917">
      <tspan x="10.417" y="27.167">dwg</tspan>
    </text>
  </g>
</svg>

<svg xmlns="http://www.w3.org/2000/svg" width="84" height="100"><defs><linearGradient id="a" x1="50%" x2="50%" y1="100%" y2="0%"><stop offset="0%" stop-color="#98BCCD"/><stop offset="100%" stop-color="#76A1B7"/></linearGradient></defs><g fill="none" fill-rule="evenodd"><path fill="url(#a)" d="M83.333 20.833V93.75a6.25 6.25 0 0 1-6.25 6.25H6.25A6.25 6.25 0 0 1 0 93.75V6.25A6.25 6.25 0 0 1 6.25 0H62.5l20.833 20.833Z"/><path fill="#FFF" d="M50 45.833c1.15 0 2.083.933 2.083 2.084v18.75h2.084c1.15 0 2.083.932 2.083 2.083v2.083h4.167a2.083 2.083 0 0 1 0 4.167h-4.168l.001 2.083c0 1.15-.933 2.084-2.083 2.084h-2.084v6.25a2.083 2.083 0 0 1-4.166 0v-6.25h-2.084a2.083 2.083 0 0 1-2.083-2.084V75H22.916a2.083 2.083 0 1 1 0-4.167h20.832l.001-2.083c0-1.15.933-2.083 2.083-2.083h2.083v-18.75c0-1.15.933-2.084 2.084-2.084Z" opacity=".6"/><path fill="#BEEAFF" d="M83.333 20.833H66.667a4.167 4.167 0 0 1-4.167-4.166V0l20.833 20.833Z"/><text fill="#FFF" font-family="Helvetica" font-size="22.917">
      <tspan x="10.417" y="27.167">dwg</tspan>
    </text></g></svg>
